X: 4808
T: the Wonder Hornpipe
C: Traditional
R: hornpipe, reel
B: RSCDS 48-7
Z: 2015 by John Chambers <jc:trillian.mit.edu>
N: Tune for the dance The Tri-Mariner
M: 4/4
L: 1/8
K: G
A2 |\
"G"GdBG "D7"FcAF | "G"GABG D2GF | "Am"EFAB cBAG | "D7"FAd^c ed=cA |
"G"GdBG "D7"FcAF | "G"GABG D2GF | "Am"Eedc "D7"BAGF | "G"A2G2 G2z2 ||
"D"FAd^c "A7"dBAG | "D"FAd^c dfed | "A7"^cdef gece | "D"d^cde "D7"d2=c2 |
"G"BcBA "E7"^GBe2 | "A7"ABAG "D"FAd2 | "C"egfe "D7"dcBA | "G"B2G2 G2 |]
